images/app-icons/vanilla-os-first-setup.svg

<svg width="128" height="128" viewBox="0 0 128 128" fill="none" xmlns="http://www.w3.org/2000/svg">
<path d="M126 69.4649C126 69.4649 117.764 67.832 112.313 70.1112C104.981 73.1771 103.462 79.1202 96.5 83.2693C86.1485 89.4384 79.0738 84.6664 68 88.5619C54.8091 93.2021 49.1038 106.967 35.3739 107.244C29.4814 107.363 26.607 106.157 20.75 106.952C14.338 107.822 8 116 8 116C8 116 8 38.5 8 35C8 31.5 13.8065 27.1491 19.75 28.1004C26.7897 29.2272 30.9294 37.7545 37.5 41.0268C48.161 46.3361 56.8446 39.5284 68 43.0268C81.0823 47.1295 82.9904 61.1837 96.5 61.0017C102.44 60.9217 106.355 59.5821 112.25 60.4775C118.953 61.4957 126 69.4649 126 69.4649Z" fill="url(#paint0_linear_1_140)"/>
<path fill-rule="evenodd" clip-rule="evenodd" d="M29.5165 61.921C29.4679 62.2467 29.5024 63.0076 29.7519 64.0865C27.3855 61.9702 24.3968 61.9222 21.1031 62.4347C20.059 62.5972 19.0246 62.6242 18 62.5156C18.5269 64.6197 19.0878 66.3423 19.6828 67.6832C20.7919 70.1831 22.5853 71.9461 23.1108 72.4082C23.4659 72.7206 24.6446 73.356 26.542 73.7779C26.3304 73.8427 26.1314 73.9133 25.9451 73.9896C23.0326 75.1826 21.7597 78.0262 20.8661 81.445C20.5893 82.5041 20.1993 83.4905 19.6962 84.4044C21.7243 84.8919 23.4363 85.1689 24.8322 85.2354C27.4347 85.3595 29.6739 84.495 30.2831 84.2163C30.8922 83.9376 32.8321 82.2919 34.4665 78.7878C34.6611 78.3706 34.8394 77.9239 35.0015 77.447C35.8025 79.8575 36.6502 81.6223 37.5445 82.7417C39.6127 85.3301 42.6403 85.8493 46.0664 85.8387C47.1276 85.8351 48.1607 85.9639 49.1654 86.2245C48.9303 84.0744 48.6093 82.2948 48.2018 80.8858C47.442 78.2591 45.9002 76.2547 45.4409 75.7212C45.1613 75.3964 44.253 74.7134 42.7384 74.0696C43.6177 74.0108 44.3686 73.8815 44.9904 73.6817C47.9872 72.7191 49.4606 69.9888 50.5953 66.6574C50.9467 65.6255 51.4062 64.6744 51.9738 63.804C49.98 63.1636 48.2873 62.7566 46.8961 62.5832C44.3021 62.2597 42.0019 62.9475 41.373 63.1779C41.108 63.275 40.5891 63.5956 39.9368 64.1857C40.5073 60.99 38.9382 58.2201 36.7205 55.4364C36.029 54.5682 35.4549 53.6453 34.9986 52.6679C33.5338 54.1295 32.4038 55.4432 31.6085 56.6089C30.1259 58.7822 29.6197 61.2294 29.5165 61.921ZM35.0361 74.2835C37.0524 74.3627 38.6868 72.7217 38.6868 70.6181C38.6868 68.5146 37.0524 66.7451 35.0361 66.6659C33.0199 66.5867 31.3854 68.2277 31.3854 70.3313C31.3854 72.4348 33.0199 74.2043 35.0361 74.2835Z" fill="white"/>
<defs>
<linearGradient id="paint0_linear_1_140" x1="8" y1="116" x2="126" y2="116" gradientUnits="userSpaceOnUse">
<stop stop-color="#FFB937"/>
<stop offset="0.0833333" stop-color="#FFC75E"/>
<stop offset="0.255208" stop-color="#FFB225"/>
<stop offset="0.526042" stop-color="#FFC963"/>
<stop offset="0.713542" stop-color="#FFB62F"/>
<stop offset="0.901042" stop-color="#FFC862"/>
<stop offset="1" stop-color="#FFC150"/>
</linearGradient>
</defs>
</svg>

<svg xmlns="http://www.w3.org/2000/svg" width="128" height="128" fill="none"><path fill="url(#a)" d="M126 69.465s-8.236-1.633-13.687.646c-7.332 3.066-8.851 9.01-15.813 13.158-10.352 6.17-17.426 1.397-28.5 5.293-13.19 4.64-18.896 18.405-32.626 18.682-5.893.119-8.767-1.087-14.624-.292C14.338 107.822 8 116 8 116V35c0-3.5 5.807-7.85 11.75-6.9 7.04 1.127 11.18 9.654 17.75 12.927 10.661 5.31 19.345-1.499 30.5 2 13.082 4.102 14.99 18.157 28.5 17.975 5.94-.08 9.855-1.42 15.75-.525 6.703 1.019 13.75 8.988 13.75 8.988"/><path fill="#fff" fill-rule="evenodd" d="M29.517 61.921c-.05.326-.015 1.087.235 2.166-2.366-2.117-5.355-2.165-8.649-1.652q-1.566.244-3.103.08.79 3.157 1.683 5.168c1.109 2.5 2.902 4.263 3.428 4.725.355.313 1.534.948 3.431 1.37q-.317.097-.597.212c-2.912 1.193-4.185 4.036-5.079 7.455a12.8 12.8 0 0 1-1.17 2.96q3.042.73 5.136.83c2.603.124 4.842-.74 5.451-1.019.61-.278 2.55-1.924 4.184-5.428q.29-.626.535-1.341 1.2 3.615 2.542 5.295c2.069 2.588 5.096 3.107 8.522 3.097a12.1 12.1 0 0 1 3.1.386q-.354-3.225-.964-5.34c-.76-2.626-2.302-4.63-2.761-5.164-.28-.325-1.188-1.008-2.703-1.651q1.32-.089 2.252-.388c2.997-.963 4.47-3.693 5.605-7.025q.528-1.547 1.379-2.853-2.991-.96-5.078-1.22c-2.594-.324-4.894.363-5.523.594-.265.097-.784.418-1.436 1.008.57-3.196-.999-5.966-3.216-8.75a13.8 13.8 0 0 1-1.722-2.768q-2.198 2.193-3.39 3.94c-1.483 2.174-1.99 4.621-2.093 5.313m5.52 12.363c2.015.079 3.65-1.562 3.65-3.666s-1.635-3.873-3.65-3.952c-2.017-.08-3.652 1.562-3.652 3.665 0 2.104 1.635 3.873 3.651 3.953" clip-rule="evenodd"/><defs><linearGradient id="a" x1="8" x2="126" y1="116" y2="116" gradientUnits="userSpaceOnUse"><stop stop-color="#FFB937"/><stop offset=".083" stop-color="#FFC75E"/><stop offset=".255" stop-color="#FFB225"/><stop offset=".526" stop-color="#FFC963"/><stop offset=".714" stop-color="#FFB62F"/><stop offset=".901" stop-color="#FFC862"/><stop offset="1" stop-color="#FFC150"/></linearGradient></defs></svg>
